app/images/svg/map-violet.svg

<svg width="23" height="23" viewBox="0 0 23 23" fill="none" xmlns="http://www.w3.org/2000/svg">
<path d="M10.916 0.0267582C9.88731 0.143555 9.29883 0.269337 8.63399 0.516407C6.87305 1.17676 5.39962 2.38516 4.39786 3.99785C3.4545 5.5207 3.01876 7.49277 3.23438 9.25371C3.58477 12.0883 5.60626 15.9965 8.95743 20.327C9.74805 21.3512 10.7678 22.5775 11.0014 22.7887C11.3113 23.0672 11.6887 23.0672 11.9986 22.7887C12.2322 22.5775 13.252 21.3512 14.0426 20.327C17.0568 16.4322 18.993 12.8924 19.6039 10.1432C19.7611 9.43789 19.8106 8.97969 19.8106 8.24297C19.8061 6.08672 18.9436 4.02481 17.3848 2.47051C16.1 1.18125 14.5861 0.404102 12.8027 0.11211C12.3805 0.0447273 11.2215 -0.00918007 10.916 0.0267582ZM12.0256 4.18203C13.7012 4.40664 15.0893 5.61055 15.543 7.23223C15.6643 7.65899 15.7092 8.51699 15.6373 8.98418C15.4262 10.3139 14.5547 11.4818 13.3193 12.0838C12.5916 12.4387 11.8459 12.5734 11.0867 12.4881C10.4938 12.4207 10.1928 12.3354 9.68067 12.0838C8.44532 11.4818 7.57383 10.3139 7.3627 8.98418C7.29083 8.51699 7.33575 7.65899 7.45704 7.23223C8.01856 5.22871 9.99962 3.90352 12.0256 4.18203Z" fill="#666981"/>
</svg>

<svg width="23" height="23" viewBox="0 0 23 23" fill="none" xmlns="http://www.w3.org/2000/svg"><path d="M10.916.027c-1.029.117-1.617.242-2.282.49a8.458 8.458 0 00-4.236 3.48c-.943 1.524-1.38 3.496-1.164 5.257.35 2.834 2.372 6.742 5.723 11.073.791 1.024 1.81 2.25 2.044 2.462.31.278.688.278.998 0 .233-.212 1.253-1.438 2.044-2.462 3.014-3.895 4.95-7.435 5.56-10.184a7.657 7.657 0 00.208-1.9 8.156 8.156 0 00-2.426-5.772C16.1 1.18 14.586.404 12.803.112 12.38.045 11.22-.009 10.916.027zm1.11 4.155a4.24 4.24 0 013.517 3.05c.121.427.166 1.285.094 1.752a4.21 4.21 0 01-2.318 3.1 3.992 3.992 0 01-2.232.404c-.593-.067-.894-.153-1.406-.404a4.211 4.211 0 01-2.318-3.1c-.072-.467-.027-1.325.094-1.752.562-2.003 2.543-3.328 4.569-3.05z" fill="#666981"/></svg>
